assets/img/Current Works.svg

<svg width="762" height="78" viewBox="0 0 762 78" fill="none" xmlns="http://www.w3.org/2000/svg">
<path d="M69.7344 68.6367C65.2995 71.819 60.6107 74.1719 55.668 75.6953C50.7253 77.2188 45.2917 77.9805 39.3672 77.9805C27.8906 77.9805 18.5299 74.6458 11.2852 67.9766C4.07422 61.3073 0.46875 52.6068 0.46875 41.875C0.46875 31.3802 4.07422 22.8828 11.2852 16.3828C18.5299 9.88281 27.9583 6.63281 39.5703 6.63281C44.8177 6.63281 49.8281 7.29297 54.6016 8.61328C59.375 9.89974 63.7591 11.8125 67.7539 14.3516L64.1992 26.8945L63.1836 26.6914C61.457 20.6992 58.7826 16.2474 55.1602 13.3359C51.5716 10.3906 46.9336 8.91797 41.2461 8.91797C32.9857 8.91797 26.418 11.8971 21.543 17.8555C16.7018 23.8138 14.2812 31.8542 14.2812 41.9766C14.2812 52.2344 16.7188 60.444 21.5938 66.6055C26.4688 72.7331 32.918 75.7969 40.9414 75.7969C47.0352 75.7969 52.2148 73.9857 56.4805 70.3633C60.7461 66.707 63.4714 61.7643 64.6562 55.5352L65.6719 55.3828L69.7344 68.6367ZM140.471 75.4922V76H127.471C126.658 74.5781 125.947 73.0547 125.338 71.4297C124.728 69.7708 124.204 67.9596 123.764 65.9961C121.766 69.7878 119.143 72.6484 115.893 74.5781C112.643 76.5078 108.851 77.4727 104.518 77.4727C100.083 77.4727 96.1724 76.7617 92.787 75.3398C89.4016 73.918 86.8287 71.9206 85.0683 69.3477C83.8157 67.5195 82.9185 65.2513 82.3769 62.543C81.8691 59.8008 81.6152 55.3828 81.6152 49.2891V46.1406V35.9844C81.6152 31.9896 81.192 29.4167 80.3456 28.2656C79.5331 27.0807 77.9758 26.3867 75.6738 26.1836V25.3711C77.7389 25.1341 79.9902 24.7279 82.4277 24.1523C84.899 23.5768 88.0305 22.6966 91.8222 21.5117C91.6868 24.457 91.5852 27.4023 91.5175 30.3477C91.4498 33.293 91.4159 36.2383 91.4159 39.1836V45.9375C91.4159 57.2786 92.5839 64.8958 94.9198 68.7891C97.2558 72.6823 101.352 74.6289 107.209 74.6289C112.524 74.6289 116.62 72.3607 119.498 67.8242C122.409 63.2539 123.865 56.7201 123.865 48.2227V38.5742C123.865 33.1237 123.476 29.7383 122.697 28.418C121.919 27.0638 120.395 26.319 118.127 26.1836V25.3711C120.26 25.1003 122.562 24.6771 125.033 24.1016C127.504 23.4922 130.534 22.6289 134.123 21.5117C133.988 24.4232 133.886 27.4193 133.818 30.5C133.751 33.5807 133.717 36.8646 133.717 40.3516V52.5898C133.717 61.3919 134.208 67.2656 135.189 70.2109C136.171 73.1562 137.932 74.9167 140.471 75.4922ZM145.648 76.3047V75.4922C148.255 74.6797 150.032 73.1224 150.98 70.8203C151.928 68.5182 152.402 63.1354 152.402 54.6719V52.1836V36.5938C152.402 32.1927 151.996 29.3659 151.183 28.1133C150.371 26.8268 148.831 26.1159 146.562 25.9805V25.168C148.797 24.8633 151.133 24.4062 153.57 23.7969C156.008 23.1875 158.631 22.4258 161.441 21.5117V38.3711C163.608 32.9206 166.316 28.7565 169.566 25.8789C172.85 22.9674 176.489 21.5117 180.484 21.5117C181.06 21.5117 181.5 21.5286 181.805 21.5625C182.143 21.5625 182.414 21.5794 182.617 21.6133L178.91 33.3438H178.098C177.454 32.5651 176.709 31.9727 175.863 31.5664C175.051 31.1602 174.12 30.957 173.07 30.957C169.617 30.957 166.976 32.5143 165.148 35.6289C163.354 38.7096 162.457 43.2292 162.457 49.1875V55.2812C162.457 63.5417 162.914 68.7891 163.828 71.0234C164.776 73.224 166.553 74.7135 169.16 75.4922L169.109 76.3047C167.18 76.2031 165.267 76.1185 163.371 76.0508C161.509 76.0169 159.613 76 157.683 76C154.806 76 152.487 76.0169 150.726 76.0508C148.966 76.1185 147.273 76.2031 145.648 76.3047ZM186.931 76.3047V75.4922C189.538 74.6797 191.316 73.1224 192.263 70.8203C193.211 68.5182 193.685 63.1354 193.685 54.6719V52.1836V36.5938C193.685 32.1927 193.279 29.3659 192.467 28.1133C191.654 26.8268 190.114 26.1159 187.845 25.9805V25.168C190.08 24.8633 192.416 24.4062 194.853 23.7969C197.291 23.1875 199.914 22.4258 202.724 21.5117V38.3711C204.891 32.9206 207.599 28.7565 210.849 25.8789C214.133 22.9674 217.773 21.5117 221.767 21.5117C222.343 21.5117 222.783 21.5286 223.088 21.5625C223.426 21.5625 223.697 21.5794 223.9 21.6133L220.193 33.3438H219.381C218.737 32.5651 217.993 31.9727 217.146 31.5664C216.334 31.1602 215.403 30.957 214.353 30.957C210.9 30.957 208.26 32.5143 206.431 35.6289C204.637 38.7096 203.74 43.2292 203.74 49.1875V55.2812C203.74 63.5417 204.197 68.7891 205.111 71.0234C206.059 73.224 207.836 74.7135 210.443 75.4922L210.392 76.3047C208.463 76.2031 206.55 76.1185 204.654 76.0508C202.792 76.0169 200.896 76 198.967 76C196.089 76 193.77 76.0169 192.01 76.0508C190.249 76.1185 188.556 76.2031 186.931 76.3047ZM286.461 41.875L242.636 41.9258C242.535 43.4154 242.45 44.7018 242.383 45.7852C242.349 46.8346 242.332 47.681 242.332 48.3242C242.332 56.4831 244.177 62.8646 247.867 67.4688C251.557 72.0391 256.652 74.3242 263.152 74.3242C268.501 74.3242 273.156 72.5299 277.117 68.9414C281.078 65.3529 284.006 60.2578 285.902 53.6562L287.476 55.7383C285.411 62.8815 282.026 68.2982 277.32 71.9883C272.648 75.6445 266.774 77.4727 259.699 77.4727C251.303 77.4727 244.346 74.8151 238.828 69.5C233.343 64.1849 230.601 57.5156 230.601 49.4922C230.601 40.7578 233.259 33.7331 238.574 28.418C243.923 23.1029 250.931 20.4453 259.597 20.4453C267.113 20.4453 273.258 22.3581 278.031 26.1836C282.838 30.0091 285.648 35.2396 286.461 41.875ZM242.84 39.6914H273.867C273.664 34.3424 272.259 30.1107 269.652 26.9961C267.079 23.8815 263.694 22.3242 259.496 22.3242C255.23 22.3242 251.642 23.8477 248.73 26.8945C245.853 29.9076 243.889 34.1732 242.84 39.6914ZM293.67 76.3047V75.4922C296.209 74.7135 297.952 73.224 298.9 71.0234C299.848 68.8229 300.322 63.9987 300.322 56.5508V52.1836V37C300.322 32.5312 299.916 29.6875 299.103 28.4688C298.324 27.2161 296.818 26.5221 294.584 26.3867V25.5742C296.886 25.2695 299.255 24.8125 301.693 24.2031C304.164 23.5599 306.754 22.7643 309.462 21.8164V37.2031C311.121 31.6172 313.745 27.4362 317.334 24.6602C320.956 21.8503 325.543 20.4453 331.095 20.4453C338.374 20.4453 343.723 22.5104 347.142 26.6406C350.595 30.737 352.322 37.1693 352.322 45.9375V55.0781C352.322 63.6094 352.779 68.9583 353.693 71.125C354.641 73.2578 356.435 74.7135 359.076 75.4922L359.025 76.3047C357.095 76.2031 355.183 76.1185 353.287 76.0508C351.425 76.0169 349.529 76 347.599 76C344.722 76 342.403 76.0169 340.642 76.0508C338.882 76.1185 337.189 76.2031 335.564 76.3047V75.4922C338.103 74.7474 339.847 73.2578 340.795 71.0234C341.742 68.7891 342.216 63.9648 342.216 56.5508V52.1836V46.8008C342.216 38.9128 341.032 33.0729 338.662 29.2812C336.292 25.4896 332.653 23.5938 327.744 23.5938C322.496 23.5938 318.298 25.6927 315.15 29.8906C312.035 34.0885 310.478 39.7591 310.478 46.9023V55.2812C310.478 63.5417 310.952 68.806 311.9 71.0742C312.848 73.3424 314.591 74.8151 317.13 75.4922V76.3047C315.201 76.2031 313.288 76.1185 311.392 76.0508C309.53 76.0169 307.634 76 305.705 76C302.827 76 300.508 76.0169 298.748 76.0508C296.987 76.1185 295.295 76.2031 293.67 76.3047ZM364.203 27.4531L364.609 25.6758C368.265 24.5586 371.447 22.6797 374.156 20.0391C376.898 17.3984 379.539 13.5898 382.078 8.61328H382.839C382.67 10.6107 382.535 12.8789 382.433 15.418C382.332 17.957 382.247 20.8008 382.179 23.9492L393.554 24V24.7109L392.488 27.4531H382.179V50.1016C382.179 59.7161 382.755 66.1992 383.906 69.5508C385.057 72.9023 387.156 74.8828 390.203 75.4922V76.1016C387.968 76.0677 385.751 76.0339 383.55 76C381.384 76 378.811 76 375.832 76C374.444 75.0521 373.462 73.7318 372.886 72.0391C372.311 70.3464 372.023 67.4349 372.023 63.3047V59.3438V55.3828V53.3516L372.632 27.4531H364.203ZM432.804 9.01953L432.855 8.20703C433.532 8.24089 434.531 8.29167 435.851 8.35938C439.338 8.59635 441.894 8.71484 443.519 8.71484C445.076 8.71484 447.581 8.61328 451.035 8.41016C452.761 8.30859 454.098 8.24089 455.046 8.20703V9.01953C453.354 9.35807 452.169 9.84896 451.492 10.4922C450.814 11.1354 450.476 12.1003 450.476 13.3867C450.476 14.4023 450.73 15.875 451.238 17.8047C451.779 19.7344 452.49 21.7656 453.37 23.8984L467.843 58.8359L488.562 6.63281H489.374L511.82 58.7344L522.433 28.0625C523.245 25.7604 523.872 23.4583 524.312 21.1562C524.786 18.8203 525.023 16.9245 525.023 15.4688C525.023 13.4375 524.583 11.8971 523.703 10.8477C522.856 9.79818 521.536 9.1888 519.742 9.01953V8.30859C521.367 8.41016 522.941 8.49479 524.464 8.5625C526.022 8.59635 527.562 8.61328 529.085 8.61328C530.609 8.61328 532.115 8.59635 533.605 8.5625C535.094 8.49479 536.567 8.41016 538.023 8.30859V9.01953C536.195 9.32422 534.13 11.4909 531.828 15.5195C529.559 19.5143 526.749 26.0143 523.398 35.0195L507.453 77.9805H507.046L484.601 23.2891L463.07 77.9805H462.663L440.066 19.9375C438.678 16.3828 437.442 13.8268 436.359 12.2695C435.309 10.6784 434.124 9.59505 432.804 9.01953ZM548.279 48.6289C548.279 57.194 549.887 63.7786 553.103 68.3828C556.319 72.987 560.889 75.2891 566.814 75.2891C572.637 75.2891 577.139 73.0039 580.322 68.4336C583.504 63.8294 585.095 57.2617 585.095 48.7305C585.095 40.2669 583.487 33.75 580.271 29.1797C577.055 24.6094 572.467 22.3242 566.509 22.3242C560.822 22.3242 556.353 24.6432 553.103 29.2812C549.887 33.9193 548.279 40.3685 548.279 48.6289ZM536.447 48.3242C536.447 40.1654 539.256 33.4792 544.876 28.2656C550.53 23.0521 557.842 20.4453 566.814 20.4453C575.751 20.4453 582.996 23.069 588.548 28.3164C594.1 33.5638 596.876 40.4023 596.876 48.832C596.876 57.2956 594.083 64.151 588.497 69.3984C582.911 74.6458 575.548 77.2695 566.407 77.2695C557.504 77.2695 550.276 74.5951 544.724 69.2461C539.206 63.8971 536.447 56.9232 536.447 48.3242ZM604.288 76.3047V75.4922C606.895 74.6797 608.672 73.1224 609.62 70.8203C610.568 68.5182 611.042 63.1354 611.042 54.6719V52.1836V36.5938C611.042 32.1927 610.636 29.3659 609.823 28.1133C609.011 26.8268 607.471 26.1159 605.202 25.9805V25.168C607.437 24.8633 609.773 24.4062 612.21 23.7969C614.648 23.1875 617.271 22.4258 620.081 21.5117V38.3711C622.248 32.9206 624.956 28.7565 628.206 25.8789C631.49 22.9674 635.129 21.5117 639.124 21.5117C639.7 21.5117 640.14 21.5286 640.445 21.5625C640.783 21.5625 641.054 21.5794 641.257 21.6133L637.55 33.3438H636.737C636.094 32.5651 635.349 31.9727 634.503 31.5664C633.691 31.1602 632.76 30.957 631.71 30.957C628.257 30.957 625.616 32.5143 623.788 35.6289C621.994 38.7096 621.097 43.2292 621.097 49.1875V55.2812C621.097 63.5417 621.554 68.7891 622.468 71.0234C623.416 73.224 625.193 74.7135 627.8 75.4922L627.749 76.3047C625.82 76.2031 623.907 76.1185 622.011 76.0508C620.149 76.0169 618.253 76 616.323 76C613.446 76 611.127 76.0169 609.366 76.0508C607.606 76.1185 605.913 76.2031 604.288 76.3047ZM645.064 76.3047L645.013 75.4922C647.62 74.6797 649.397 73.0885 650.345 70.7188C651.327 68.3151 651.818 63.0677 651.818 54.9766V50.3047V16.9414C651.818 11.457 651.411 8.10547 650.599 6.88672C649.786 5.66797 648.246 4.99089 645.978 4.85547V4.04297C648.415 3.73828 650.971 3.26432 653.646 2.62109C656.354 1.97786 659.198 1.16536 662.177 0.183594C662.041 2.48568 661.94 5.22786 661.872 8.41016C661.804 11.5924 661.771 15.5026 661.771 20.1406V44.6172L674.669 33.6484C677.648 31.1432 679.679 29.2305 680.763 27.9102C681.846 26.5898 682.388 25.4557 682.388 24.5078C682.388 23.8984 682.168 23.4245 681.728 23.0859C681.288 22.7135 680.526 22.3919 679.443 22.1211V21.5117C680.695 21.5794 682.032 21.6302 683.454 21.6641C684.91 21.6979 687.077 21.7148 689.954 21.7148C693.407 21.7148 695.963 21.6979 697.622 21.6641C699.281 21.6302 700.771 21.5794 702.091 21.5117L702.142 22.2227C695.811 23.4076 688.634 26.9792 680.61 32.9375C680.103 33.3099 679.713 33.5977 679.443 33.8008L667.001 43.043C671.707 43.0768 675.549 43.9062 678.528 45.5312C681.508 47.1562 684.656 50.3724 687.974 55.1797C688.685 56.1953 689.7 57.7018 691.021 59.6992C696.505 67.9596 701.414 73.224 705.747 75.4922V76.3047C704.461 76.237 703.123 76.1862 701.735 76.1523C700.381 76.1185 698.502 76.1016 696.099 76.1016C694.508 76.1016 693.035 76.1185 691.681 76.1523C690.36 76.1862 689.023 76.237 687.669 76.3047C686.552 74.4089 684.995 71.7513 682.997 68.332C674.432 53.5378 668.643 46.1406 665.63 46.1406C664.242 46.1406 663.243 46.6654 662.634 47.7148C662.058 48.7643 661.771 50.5924 661.771 53.1992C661.771 61.8997 662.245 67.5872 663.193 70.2617C664.174 72.9362 666.019 74.6797 668.728 75.4922V76.3047C667.204 76.2031 665.579 76.1185 663.853 76.0508C662.126 76.0169 659.739 76 656.693 76C654.357 76 652.291 76.0169 650.497 76.0508C648.737 76.1185 646.926 76.2031 645.064 76.3047ZM708.894 72.5469L712.448 60.8164H713.058C713.565 65.1497 715.783 68.6536 719.71 71.3281C723.637 73.9688 728.563 75.2891 734.487 75.2891C739.464 75.2891 743.51 74.1042 746.624 71.7344C749.773 69.3646 751.347 66.3516 751.347 62.6953C751.347 59.6823 750.365 57.4648 748.401 56.043C746.472 54.6211 741.732 53.4023 734.183 52.3867C726.329 51.3034 720.76 49.5599 717.476 47.1562C714.192 44.7526 712.55 41.2995 712.55 36.7969C712.55 31.9219 714.818 27.9609 719.355 24.9141C723.925 21.8672 729.934 20.3438 737.382 20.3438C741.411 20.3438 745.168 20.6484 748.655 21.2578C752.142 21.8333 755.257 22.6797 757.999 23.7969L754.952 33.8008H754.343C753.226 29.9076 751.313 27.013 748.605 25.1172C745.93 23.1875 742.443 22.2227 738.144 22.2227C733.472 22.2227 729.629 23.3398 726.616 25.5742C723.603 27.8086 722.097 30.5846 722.097 33.9023C722.097 36.6784 723.214 38.7604 725.448 40.1484C727.683 41.5365 731.83 42.5352 737.89 43.1445C746.861 44.0586 753.006 45.6159 756.323 47.8164C759.641 49.9831 761.3 53.2839 761.3 57.7188C761.3 63.8802 758.829 68.7214 753.886 72.2422C748.943 75.7292 742.054 77.4727 733.218 77.4727C728.783 77.4727 724.534 77.0664 720.472 76.2539C716.443 75.4414 712.584 74.2057 708.894 72.5469Z" fill="white"/>
</svg>

<svg width="762" height="78" fill="none" xmlns="http://www.w3.org/2000/svg"><path d="M69.734 68.637c-4.434 3.182-9.123 5.535-14.066 7.058-4.943 1.524-10.376 2.286-16.3 2.286-11.477 0-20.838-3.335-28.083-10.004C4.075 61.307.47 52.607.47 41.875c0-10.495 3.605-18.992 10.816-25.492 7.245-6.5 16.673-9.75 28.285-9.75 5.248 0 10.258.66 15.032 1.98 4.773 1.287 9.157 3.2 13.152 5.739l-3.555 12.543-1.015-.204c-1.727-5.992-4.401-10.444-8.024-13.355-3.588-2.945-8.226-4.418-13.914-4.418-8.26 0-14.828 2.98-19.703 8.938-4.841 5.958-7.262 13.998-7.262 24.12 0 10.258 2.438 18.468 7.313 24.63 4.875 6.127 11.324 9.19 19.347 9.19 6.094 0 11.274-1.81 15.54-5.433 4.265-3.656 6.99-8.599 8.175-14.828l1.016-.152 4.062 13.254zm70.737 6.855V76h-13a31.361 31.361 0 01-2.133-4.57 43.007 43.007 0 01-1.574-5.434c-1.998 3.792-4.621 6.652-7.871 8.582-3.25 1.93-7.042 2.895-11.375 2.895-4.435 0-8.346-.711-11.731-2.133-3.385-1.422-5.958-3.42-7.719-5.992-1.252-1.829-2.15-4.097-2.691-6.805-.508-2.742-.762-7.16-.762-13.254V35.984c0-3.994-.423-6.567-1.27-7.718-.812-1.185-2.37-1.88-4.671-2.082v-.813c2.065-.237 4.316-.643 6.754-1.219 2.471-.575 5.603-1.455 9.394-2.64a385.095 385.095 0 00-.406 17.672v6.754c0 11.34 1.168 18.958 3.504 22.851 2.336 3.893 6.432 5.84 12.289 5.84 5.315 0 9.411-2.268 12.289-6.805 2.911-4.57 4.367-11.104 4.367-19.601v-9.649c0-5.45-.389-8.836-1.168-10.156-.778-1.354-2.302-2.099-4.57-2.234v-.813c2.133-.27 4.435-.694 6.906-1.27 2.471-.609 5.501-1.472 9.09-2.59a370.795 370.795 0 00-.305 8.989c-.067 3.08-.101 6.365-.101 9.852V52.59c0 8.802.491 14.676 1.472 17.62.982 2.946 2.743 4.707 5.282 5.282zm5.177.813v-.813c2.607-.812 4.384-2.37 5.332-4.672.948-2.302 1.422-7.685 1.422-16.148V36.594c0-4.401-.406-7.228-1.219-8.48-.812-1.287-2.352-1.998-4.621-2.134v-.812a65.339 65.339 0 007.008-1.371 118.38 118.38 0 007.871-2.285v16.86c2.167-5.451 4.875-9.616 8.125-12.493 3.284-2.912 6.923-4.367 10.918-4.367.576 0 1.016.017 1.321.05.338 0 .609.017.812.051l-3.707 11.73h-.812c-.644-.778-1.389-1.37-2.235-1.777-.812-.406-1.743-.609-2.793-.609-3.453 0-6.094 1.557-7.922 4.672-1.794 3.08-2.691 7.6-2.691 13.559v6.093c0 8.26.457 13.508 1.371 15.742.948 2.201 2.725 3.69 5.332 4.47l-.051.812a339.309 339.309 0 00-5.738-.254c-1.862-.034-3.758-.051-5.688-.051-2.877 0-5.196.017-6.957.05-1.76.069-3.453.153-5.078.255zm41.283 0v-.813c2.607-.812 4.385-2.37 5.332-4.672.948-2.302 1.422-7.685 1.422-16.148V36.594c0-4.401-.406-7.228-1.218-8.48-.813-1.287-2.353-1.998-4.622-2.134v-.812a65.339 65.339 0 007.008-1.371 118.38 118.38 0 007.871-2.285v16.86c2.167-5.451 4.875-9.616 8.125-12.493 3.284-2.912 6.924-4.367 10.918-4.367.576 0 1.016.017 1.321.05.338 0 .609.017.812.051l-3.707 11.73h-.812c-.644-.778-1.388-1.37-2.235-1.777-.812-.406-1.743-.609-2.793-.609-3.453 0-6.093 1.557-7.922 4.672-1.794 3.08-2.691 7.6-2.691 13.559v6.093c0 8.26.457 13.508 1.371 15.742.948 2.201 2.725 3.69 5.332 4.47l-.051.812a339.309 339.309 0 00-5.738-.254c-1.862-.034-3.758-.051-5.687-.051-2.878 0-5.197.017-6.957.05-1.761.069-3.454.153-5.079.255zm99.53-34.43l-43.825.05c-.101 1.49-.186 2.777-.253 3.86a82.011 82.011 0 00-.051 2.54c0 8.158 1.845 14.54 5.535 19.144 3.69 4.57 8.785 6.855 15.285 6.855 5.349 0 10.004-1.794 13.965-5.383 3.961-3.588 6.889-8.683 8.785-15.285l1.574 2.082c-2.065 7.144-5.45 12.56-10.156 16.25-4.672 3.656-10.546 5.485-17.621 5.485-8.396 0-15.353-2.658-20.871-7.973-5.485-5.315-8.227-11.984-8.227-20.008 0-8.734 2.658-15.759 7.973-21.074 5.349-5.315 12.357-7.973 21.023-7.973 7.516 0 13.661 1.913 18.434 5.739 4.807 3.825 7.617 9.056 8.43 15.691zm-43.621-2.184h31.027c-.203-5.349-1.608-9.58-4.215-12.695-2.573-3.114-5.958-4.672-10.156-4.672-4.266 0-7.854 1.524-10.766 4.57-2.877 3.014-4.841 7.28-5.89 12.797zm50.83 36.614v-.813c2.539-.779 4.282-2.268 5.23-4.469.948-2.2 1.422-7.024 1.422-14.472V37c0-4.469-.406-7.313-1.219-8.531-.779-1.253-2.285-1.947-4.519-2.082v-.813a63.928 63.928 0 007.109-1.37 99.286 99.286 0 007.769-2.388v15.387c1.659-5.586 4.283-9.767 7.872-12.543 3.622-2.81 8.209-4.215 13.761-4.215 7.279 0 12.628 2.065 16.047 6.196 3.453 4.096 5.18 10.528 5.18 19.297v9.14c0 8.531.457 13.88 1.371 16.047.948 2.133 2.742 3.588 5.383 4.367l-.051.813c-1.93-.102-3.842-.187-5.738-.254-1.862-.034-3.758-.051-5.688-.051-2.877 0-5.196.017-6.957.05-1.76.069-3.453.153-5.078.255v-.813c2.539-.745 4.283-2.234 5.231-4.469.947-2.234 1.421-7.058 1.421-14.472V46.8c0-7.888-1.184-13.728-3.554-17.52-2.37-3.791-6.009-5.687-10.918-5.687-5.248 0-9.446 2.099-12.594 6.297-3.115 4.198-4.672 9.868-4.672 17.011v8.38c0 8.26.474 13.524 1.422 15.792.948 2.268 2.691 3.741 5.23 4.418v.813a339.309 339.309 0 00-5.738-.254c-1.862-.034-3.758-.051-5.687-.051-2.878 0-5.197.017-6.957.05-1.761.069-3.453.153-5.078.255zm70.533-48.852l.406-1.777c3.656-1.117 6.838-2.996 9.547-5.637 2.742-2.64 5.383-6.45 7.922-11.426h.761a155.71 155.71 0 00-.406 6.805 473.643 473.643 0 00-.254 8.531l11.375.051v.71l-1.066 2.743h-10.309v22.649c0 9.614.576 16.097 1.727 19.449 1.151 3.351 3.25 5.332 6.297 5.941v.61L383.55 76h-7.718c-1.388-.948-2.37-2.268-2.946-3.96-.575-1.694-.863-4.605-.863-8.735v-9.953l.609-25.899h-8.429zM432.804 9.02l.051-.813 2.996.152c3.487.237 6.043.356 7.668.356 1.557 0 4.062-.102 7.516-.305 1.726-.101 3.063-.17 4.011-.203v.813c-1.692.338-2.877.829-3.554 1.472-.678.643-1.016 1.608-1.016 2.895 0 1.015.254 2.488.762 4.418.541 1.93 1.252 3.96 2.132 6.093l14.473 34.938 20.719-52.203h.812l22.446 52.101 10.613-30.672a47.634 47.634 0 001.879-6.906c.474-2.336.711-4.232.711-5.687 0-2.031-.44-3.572-1.32-4.621-.847-1.05-2.167-1.66-3.961-1.828v-.711c1.625.101 3.199.186 4.722.254 1.558.033 3.098.05 4.621.05 1.524 0 3.03-.017 4.52-.05 1.489-.068 2.962-.153 4.418-.254v.71c-1.828.305-3.893 2.472-6.195 6.5-2.269 3.995-5.079 10.495-8.43 19.5l-15.945 42.962h-.407l-22.445-54.692-21.531 54.692h-.407l-22.597-58.043c-1.388-3.555-2.624-6.111-3.707-7.668-1.05-1.592-2.235-2.675-3.555-3.25zm115.475 39.609c0 8.565 1.608 15.15 4.824 19.754 3.216 4.604 7.786 6.906 13.711 6.906 5.823 0 10.325-2.285 13.508-6.855 3.182-4.605 4.773-11.172 4.773-19.703 0-8.464-1.608-14.981-4.824-19.551-3.216-4.57-7.804-6.856-13.762-6.856-5.687 0-10.156 2.32-13.406 6.957-3.216 4.638-4.824 11.087-4.824 19.348zm-11.832-.305c0-8.159 2.809-14.845 8.429-20.058 5.654-5.214 12.966-7.82 21.938-7.82 8.937 0 16.182 2.623 21.734 7.87 5.552 5.248 8.328 12.086 8.328 20.516 0 8.464-2.793 15.319-8.379 20.566-5.586 5.248-12.949 7.871-22.09 7.871-8.903 0-16.131-2.674-21.683-8.023-5.518-5.349-8.277-12.323-8.277-20.922zm67.841 27.98v-.812c2.607-.812 4.384-2.37 5.332-4.672.948-2.302 1.422-7.685 1.422-16.148V36.594c0-4.401-.406-7.228-1.219-8.48-.812-1.287-2.352-1.998-4.621-2.134v-.812a65.339 65.339 0 007.008-1.371 118.38 118.38 0 007.871-2.285v16.86c2.167-5.451 4.875-9.616 8.125-12.493 3.284-2.912 6.923-4.367 10.918-4.367.576 0 1.016.017 1.321.05.338 0 .609.017.812.051l-3.707 11.73h-.813c-.643-.778-1.388-1.37-2.234-1.777-.812-.406-1.743-.609-2.793-.609-3.453 0-6.094 1.557-7.922 4.672-1.794 3.08-2.691 7.6-2.691 13.559v6.093c0 8.26.457 13.508 1.371 15.742.948 2.201 2.725 3.69 5.332 4.47l-.051.812a339.309 339.309 0 00-5.738-.254c-1.862-.034-3.758-.051-5.688-.051-2.877 0-5.196.017-6.957.05-1.76.069-3.453.153-5.078.255zm40.776 0l-.051-.812c2.607-.812 4.384-2.404 5.332-4.773.982-2.404 1.473-7.651 1.473-15.742V16.94c0-5.484-.407-8.836-1.219-10.054-.813-1.219-2.353-1.896-4.621-2.032v-.812a70.033 70.033 0 007.668-1.422 104.47 104.47 0 008.531-2.437 223.214 223.214 0 00-.305 8.226 564.692 564.692 0 00-.101 11.73v24.477l12.898-10.969c2.979-2.505 5.01-4.418 6.094-5.738 1.083-1.32 1.625-2.454 1.625-3.402 0-.61-.22-1.084-.66-1.422-.44-.372-1.202-.694-2.285-.965v-.61c1.252.068 2.589.12 4.011.153 1.456.034 3.623.05 6.5.05 3.453 0 6.009-.016 7.668-.05 1.659-.034 3.149-.085 4.469-.152l.051.71c-6.331 1.186-13.508 4.757-21.532 10.715-.507.373-.897.66-1.167.864l-12.442 9.242c4.706.034 8.548.863 11.527 2.488 2.98 1.625 6.128 4.841 9.446 9.649a224.244 224.244 0 013.047 4.52c5.484 8.26 10.393 13.524 14.726 15.792v.813a142.679 142.679 0 00-4.012-.153c-1.354-.034-3.233-.05-5.636-.05-1.591 0-3.064.016-4.418.05a165.21 165.21 0 00-4.012.153 2745.655 2745.655 0 01-4.672-7.973c-8.565-14.794-14.354-22.191-17.367-22.191-1.388 0-2.387.524-2.996 1.574-.576 1.05-.863 2.877-.863 5.484 0 8.7.474 14.388 1.422 17.063.981 2.674 2.826 4.418 5.535 5.23v.813a178.903 178.903 0 00-4.875-.254c-1.727-.034-4.114-.051-7.16-.051-2.336 0-4.402.017-6.196.05-1.76.069-3.571.153-5.433.255zm63.83-3.757l3.554-11.73h.61c.507 4.333 2.725 7.837 6.652 10.511 3.927 2.64 8.853 3.961 14.777 3.961 4.977 0 9.023-1.185 12.137-3.555 3.149-2.37 4.723-5.382 4.723-9.039 0-3.013-.982-5.23-2.946-6.652-1.929-1.422-6.669-2.64-14.218-3.656-7.854-1.084-13.423-2.827-16.707-5.23-3.284-2.404-4.926-5.857-4.926-10.36 0-4.875 2.268-8.836 6.805-11.883 4.57-3.047 10.579-4.57 18.027-4.57 4.029 0 7.786.304 11.273.914 3.487.575 6.602 1.422 9.344 2.539L754.952 33.8h-.609c-1.117-3.893-3.03-6.788-5.738-8.684-2.675-1.93-6.162-2.894-10.461-2.894-4.672 0-8.515 1.117-11.528 3.351-3.013 2.235-4.519 5.01-4.519 8.328 0 2.776 1.117 4.858 3.351 6.246 2.235 1.388 6.382 2.387 12.442 2.996 8.971.915 15.116 2.472 18.433 4.672 3.318 2.167 4.977 5.468 4.977 9.903 0 6.161-2.471 11.002-7.414 14.523-4.943 3.487-11.832 5.23-20.668 5.23-4.435 0-8.684-.406-12.746-1.218a54.344 54.344 0 01-11.578-3.707z" fill="#fff"/></svg>
